svg/Tango/actions/media-eject.svg

<?xml version="1.0" encoding="UTF-8" standalone="no"?>
<!-- Created with Inkscape (http://www.inkscape.org/) -->
<svg
   xmlns:dc="http://purl.org/dc/elements/1.1/"
   xmlns:cc="http://creativecommons.org/ns#"
   xmlns:rdf="http://www.w3.org/1999/02/22-rdf-syntax-ns#"
   xmlns:svg="http://www.w3.org/2000/svg"
   xmlns="http://www.w3.org/2000/svg"
   xmlns:xlink="http://www.w3.org/1999/xlink"
   xmlns:sodipodi="http://sodipodi.sourceforge.net/DTD/sodipodi-0.dtd"
   xmlns:inkscape="http://www.inkscape.org/namespaces/inkscape"
   width="48px"
   height="48px"
   id="svg1307"
   sodipodi:version="0.32"
   inkscape:version="0.46"
   sodipodi:docbase="/home/jimmac/src/cvs/tango-icon-theme/scalable/actions"
   sodipodi:docname="media-eject.svg"
   inkscape:export-filename="/home/lapo/Desktop/Grafica/Icone/media-actions-outlines.png"
   inkscape:export-xdpi="90"
   inkscape:export-ydpi="90"
   inkscape:output_extension="org.inkscape.output.svg.inkscape">
  <defs
     id="defs1309">
    <inkscape:perspective
       sodipodi:type="inkscape:persp3d"
       inkscape:vp_x="0 : 24 : 1"
       inkscape:vp_y="0 : 1000 : 0"
       inkscape:vp_z="48 : 24 : 1"
       inkscape:persp3d-origin="24 : 16 : 1"
       id="perspective68" />
    <linearGradient
       id="linearGradient4061">
      <stop
         id="stop4063"
         offset="0"
         style="stop-color:#474845;stop-opacity:1;" />
      <stop
         id="stop4065"
         offset="1"
         style="stop-color:#838681;stop-opacity:1" />
    </linearGradient>
    <linearGradient
       id="linearGradient3881">
      <stop
         style="stop-color:#474845;stop-opacity:1;"
         offset="0"
         id="stop3883" />
      <stop
         style="stop-color:#838681;stop-opacity:1"
         offset="1"
         id="stop3885" />
    </linearGradient>
    <linearGradient
       id="linearGradient2684">
      <stop
         id="stop2686"
         offset="0"
         style="stop-color:#ffffff;stop-opacity:1;" />
      <stop
         id="stop2688"
         offset="1"
         style="stop-color:#000000;stop-opacity:1;" />
    </linearGradient>
    <linearGradient
       id="linearGradient2584">
      <stop
         style="stop-color:#000000;stop-opacity:1;"
         offset="0"
         id="stop2586" />
      <stop
         style="stop-color:#ffffff;stop-opacity:0;"
         offset="1"
         id="stop2588" />
    </linearGradient>
    <linearGradient
       id="linearGradient5075">
      <stop
         style="stop-color:#adb0a8;stop-opacity:1;"
         offset="0"
         id="stop5077" />
      <stop
         style="stop-color:#464744;stop-opacity:1"
         offset="1"
         id="stop5079" />
    </linearGradient>
    <linearGradient
       id="linearGradient2691"
       inkscape:collect="always">
      <stop
         id="stop2693"
         offset="0"
         style="stop-color:#ffffff;stop-opacity:1" />
      <stop
         id="stop2695"
         offset="1"
         style="stop-color:#d3d7cf" />
    </linearGradient>
    <radialGradient
       inkscape:collect="always"
       xlink:href="#linearGradient2691"
       id="radialGradient2820"
       gradientUnits="userSpaceOnUse"
       gradientTransform="matrix(7.417671e-4,-0.841008,2.061725,1.819131e-3,-85.84076,115.7349)"
       cx="107.69903"
       cy="53.086113"
       fx="107.69903"
       fy="53.086113"
       r="12.551644" />
    <radialGradient
       inkscape:collect="always"
       xlink:href="#linearGradient2691"
       id="radialGradient3705"
       gradientUnits="userSpaceOnUse"
       gradientTransform="matrix(7.541952e-4,-0.786068,2.096269,1.700295e-3,-88.16796,111.9199)"
       cx="101.15939"
       cy="53.259945"
       fx="101.15939"
       fy="53.259945"
       r="12.551644" />
    <linearGradient
       inkscape:collect="always"
       xlink:href="#linearGradient2684"
       id="linearGradient3721"
       gradientUnits="userSpaceOnUse"
       gradientTransform="matrix(1.128181,0,0,1.128181,8.232257,-83.36009)"
       x1="14.628661"
       y1="107.05981"
       x2="14.334254"
       y2="88.591339" />
    <linearGradient
       inkscape:collect="always"
       xlink:href="#linearGradient2684"
       id="linearGradient3725"
       gradientUnits="userSpaceOnUse"
       gradientTransform="matrix(1.128181,0,0,1.128181,8.232257,-83.36009)"
       x1="14.296268"
       y1="107.7246"
       x2="14.888244"
       y2="90.142509" />
    <linearGradient
       inkscape:collect="always"
       xlink:href="#linearGradient3881"
       id="linearGradient3887"
       x1="21.597084"
       y1="14.977048"
       x2="21.522573"
       y2="34.510876"
       gradientUnits="userSpaceOnUse" />
    <linearGradient
       inkscape:collect="always"
       xlink:href="#linearGradient4061"
       id="linearGradient3889"
       x1="21.597084"
       y1="14.977048"
       x2="21.522573"
       y2="34.510876"
       gradientUnits="userSpaceOnUse" />
    <linearGradient
       gradientUnits="userSpaceOnUse"
       y2="36"
       x2="23.750401"
       y1="13.658564"
       x1="24.476166"
       id="linearGradient2322"
       xlink:href="#linearGradient2316"
       inkscape:collect="always" />
    <radialGradient
       r="8.75"
       fy="147.99352"
       fx="64.227074"
       cy="147.99352"
       cx="64.227074"
       gradientTransform="matrix(0.222659,-0.996273,2.129992,0.476041,-308.946,20.8517)"
       gradientUnits="userSpaceOnUse"
       id="radialGradient1439"
       xlink:href="#linearGradient2679"
       inkscape:collect="always" />
    <radialGradient
       r="8.75"
       fy="147.99352"
       fx="64.227074"
       cy="147.99352"
       cx="64.227074"
       gradientTransform="matrix(0.222659,-0.996273,2.129992,0.476041,-290.946,20.8517)"
       gradientUnits="userSpaceOnUse"
       id="radialGradient1436"
       xlink:href="#linearGradient2679"
       inkscape:collect="always" />
    <linearGradient
       y2="115.13713"
       x2="49.667324"
       y1="112.94963"
       x1="49.430401"
       gradientTransform="translate(-44.99051,-97.26213)"
       gradientUnits="userSpaceOnUse"
       id="linearGradient1426"
       xlink:href="#linearGradient2584"
       inkscape:collect="always" />
    <linearGradient
       y2="142.18799"
       x2="54.896976"
       y1="156"
       x1="54.988514"
       gradientTransform="translate(-47.9996,-121)"
       gradientUnits="userSpaceOnUse"
       id="linearGradient1401"
       xlink:href="#linearGradient5075"
       inkscape:collect="always" />
    <linearGradient
       inkscape:collect="always"
       id="linearGradient2679">
      <stop
         style="stop-color:#ffffff;stop-opacity:1"
         offset="0"
         id="stop2681" />
      <stop
         style="stop-color:#d3d7cf"
         offset="1"
         id="stop2683" />
    </linearGradient>
    <linearGradient
       id="linearGradient2316">
      <stop
         id="stop2318"
         offset="0"
         style="stop-color:#000000;stop-opacity:1;" />
      <stop
         id="stop2320"
         offset="1"
         style="stop-color:#ffffff;stop-opacity:0.65979379;" />
    </linearGradient>
  </defs>
  <sodipodi:namedview
     id="base"
     pagecolor="#ffffff"
     bordercolor="#969696"
     borderopacity="0.13333333"
     inkscape:pageopacity="0"
     inkscape:pageshadow="2"
     inkscape:zoom="11.313708"
     inkscape:cx="21.647252"
     inkscape:cy="17.061223"
     inkscape:current-layer="layer1"
     showgrid="false"
     inkscape:grid-bbox="true"
     inkscape:document-units="px"
     inkscape:grid-points="true"
     fill="#555753"
     showguides="false"
     inkscape:guide-bbox="true"
     guidetolerance="1px"
     stroke="#555753"
     inkscape:window-width="1090"
     inkscape:window-height="818"
     inkscape:window-x="344"
     inkscape:window-y="30"
     showborder="true"
     inkscape:showpageshadow="false">
    <sodipodi:guide
       orientation="horizontal"
       position="38.996647"
       id="guide2194" />
    <sodipodi:guide
       orientation="horizontal"
       position="9.0140845"
       id="guide2196" />
    <sodipodi:guide
       orientation="vertical"
       position="9.0140845"
       id="guide2198" />
    <sodipodi:guide
       orientation="vertical"
       position="38.975184"
       id="guide2200" />
    <sodipodi:guide
       orientation="horizontal"
       position="22.988281"
       id="guide2202" />
    <sodipodi:guide
       orientation="vertical"
       position="23.908786"
       id="guide2204" />
    <sodipodi:guide
       orientation="vertical"
       position="157.99417"
       id="guide4332" />
    <sodipodi:guide
       orientation="horizontal"
       position="-36.062446"
       id="guide4334" />
    <sodipodi:guide
       orientation="horizontal"
       position="-58.02695"
       id="guide4336" />
    <sodipodi:guide
       orientation="vertical"
       position="180.00287"
       id="guide4338" />
    <sodipodi:guide
       orientation="vertical"
       position="107.92217"
       id="guide4417" />
    <sodipodi:guide
       orientation="vertical"
       position="129.93087"
       id="guide4419" />
    <sodipodi:guide
       orientation="horizontal"
       position="19.996875"
       id="guide5106" />
    <sodipodi:guide
       orientation="horizontal"
       position="63.039674"
       id="guide5119" />
    <sodipodi:guide
       orientation="horizontal"
       position="49.066305"
       id="guide5121" />
    <sodipodi:guide
       orientation="horizontal"
       position="-86.007168"
       id="guide5307" />
    <sodipodi:guide
       orientation="horizontal"
       position="-108.09009"
       id="guide5309" />
    <sodipodi:guide
       orientation="horizontal"
       position="-100.15429"
       id="guide3111" />
    <inkscape:grid
       id="GridFromPre046Settings"
       type="xygrid"
       originx="0px"
       originy="0px"
       spacingx="0.5px"
       spacingy="0.5px"
       color="#0000ff"
       empcolor="#0000ff"
       opacity="0.2"
       empopacity="0.4"
       empspacing="2" />
  </sodipodi:namedview>
  <metadata
     id="metadata1312">
    <rdf:RDF>
      <cc:Work
         rdf:about="">
        <dc:format>image/svg+xml</dc:format>
        <dc:type
           rdf:resource="http://purl.org/dc/dcmitype/StillImage" />
        <dc:title>Media Playback Start</dc:title>
        <dc:creator>
          <cc:Agent>
            <dc:title>Jakub Steiner</dc:title>
          </cc:Agent>
        </dc:creator>
        <cc:license
           rdf:resource="http://creativecommons.org/licenses/publicdomain/" />
        <dc:subject>
          <rdf:Bag>
            <rdf:li>media</rdf:li>
            <rdf:li>eject</rdf:li>
          </rdf:Bag>
        </dc:subject>
        <dc:contributor>
          <cc:Agent>
            <dc:title />
          </cc:Agent>
        </dc:contributor>
      </cc:Work>
      <cc:License
         rdf:about="http://creativecommons.org/licenses/publicdomain/">
        <cc:permits
           rdf:resource="http://creativecommons.org/ns#Reproduction" />
        <cc:permits
           rdf:resource="http://creativecommons.org/ns#Distribution" />
        <cc:permits
           rdf:resource="http://creativecommons.org/ns#DerivativeWorks" />
      </cc:License>
    </rdf:RDF>
  </metadata>
  <g
     inkscape:groupmode="layer"
     id="layer4"
     inkscape:label="contorno"
     style="display:inline" />
  <g
     id="layer1"
     inkscape:label="Layer 1"
     inkscape:groupmode="layer"
     style="display:inline">
    <path
       sodipodi:nodetypes="cccc"
       inkscape:r_cy="true"
       inkscape:r_cx="true"
       id="path3711"
       d="M 23.688076,8.7574062 L 10.871765,26.499989 L 36.504387,26.499989 L 23.688076,8.7574062 z "
       style="opacity:0.15;color:#000000;fill:none;fill-opacity:1;fill-rule:evenodd;stroke:url(#linearGradient3721);stroke-width:3;stroke-linecap:square;stroke-linejoin:round;marker:none;marker-start:none;marker-mid:none;marker-end:none;stroke-miterlimit:4;stroke-dasharray:none;stroke-dashoffset:0;stroke-opacity:1;visibility:visible;display:inline;overflow:visible" />
    <path
       style="opacity:1;color:#000000;fill:url(#radialGradient2820);fill-opacity:1;fill-rule:evenodd;stroke:url(#linearGradient3887);stroke-width:1.00000012;stroke-linecap:square;stroke-linejoin:round;marker:none;marker-start:none;marker-mid:none;marker-end:none;stroke-miterlimit:4;stroke-dasharray:none;stroke-dashoffset:0;stroke-opacity:1;visibility:visible;display:inline;overflow:visible"
       d="M 23.688076,8.7574062 L 10.871765,26.499989 L 36.504387,26.499989 L 23.688076,8.7574062 z "
       id="path2818"
       inkscape:r_cx="true"
       inkscape:r_cy="true"
       sodipodi:nodetypes="cccc" />
    <path
       sodipodi:nodetypes="cccc"
       inkscape:r_cy="true"
       inkscape:r_cx="true"
       id="path2828"
       d="M 23.688071,10.492044 L 12.811768,25.591373 L 34.564374,25.502984 L 23.688071,10.492044 z "
       style="opacity:1;color:#000000;fill:none;fill-opacity:1;fill-rule:evenodd;stroke:#ffffff;stroke-width:1;stroke-linecap:butt;stroke-linejoin:miter;marker:none;marker-start:none;marker-mid:none;marker-end:none;stroke-miterlimit:4;stroke-dasharray:none;stroke-dashoffset:0;stroke-opacity:1;visibility:visible;display:inline;overflow:visible" />
    <rect
       inkscape:r_cy="true"
       inkscape:r_cx="true"
       y="30.504408"
       x="10.614329"
       height="4.9750595"
       width="25.882353"
       id="rect3723"
       style="opacity:0.15;color:#000000;fill:none;fill-opacity:1;fill-rule:evenodd;stroke:url(#linearGradient3725);stroke-width:3;stroke-linecap:square;stroke-linejoin:round;marker:none;marker-start:none;marker-mid:none;marker-end:none;stroke-miterlimit:4;stroke-dasharray:none;stroke-dashoffset:0;stroke-opacity:1;visibility:visible;display:inline;overflow:visible" />
    <rect
       style="opacity:1;color:#000000;fill:url(#radialGradient3705);fill-opacity:1;fill-rule:evenodd;stroke:url(#linearGradient3889);stroke-width:1.00000024;stroke-linecap:butt;stroke-linejoin:miter;marker:none;marker-start:none;marker-mid:none;marker-end:none;stroke-miterlimit:4;stroke-dasharray:none;stroke-dashoffset:0;stroke-opacity:1;visibility:visible;display:inline;overflow:visible"
       id="rect3703"
       width="25.882353"
       height="4.9750595"
       x="10.614329"
       y="30.504408"
       inkscape:r_cx="true"
       inkscape:r_cy="true" />
    <rect
       inkscape:r_cy="true"
       inkscape:r_cx="true"
       y="31.553034"
       x="11.616447"
       height="2.9302683"
       width="23.87805"
       id="rect3707"
       style="opacity:1;color:#000000;fill:none;fill-opacity:1;fill-rule:evenodd;stroke:#ffffff;stroke-width:0.99999952;stroke-linecap:butt;stroke-linejoin:miter;marker:none;marker-start:none;marker-mid:none;marker-end:none;stroke-miterlimit:4;stroke-dasharray:none;stroke-dashoffset:0;stroke-opacity:1;visibility:visible;display:inline;overflow:visible" />
    <path
       style="opacity:0.56111111;color:#000000;fill:#ffffff;fill-opacity:1;fill-rule:evenodd;stroke:none;stroke-width:1;stroke-linecap:butt;stroke-linejoin:miter;marker:none;marker-start:none;marker-mid:none;marker-end:none;stroke-miterlimit:4;stroke-dasharray:none;stroke-dashoffset:0;stroke-opacity:1;visibility:visible;display:inline;overflow:visible"
       d="M 23.6875,11.3125 L 17.6875,19.625 C 22.683077,19.81186 24.399544,19.457194 29.0625,18.8125 L 23.6875,11.3125 z "
       id="path3709"
       inkscape:r_cx="true"
       inkscape:r_cy="true"
       sodipodi:nodetypes="cccc" />
  </g>
</svg>

<svg xmlns="http://www.w3.org/2000/svg" xmlns:xlink="http://www.w3.org/1999/xlink" viewBox="0 0 48 48"><defs><linearGradient xlink:href="#0" id="7" x1="21.597" y1="14.977" x2="21.523" y2="34.511" gradientUnits="userSpaceOnUse"/><linearGradient xlink:href="#1" id="6" gradientUnits="userSpaceOnUse" x1="24.361" y1="38.17" x2="25.03" y2="18.337"/><linearGradient xlink:href="#1" id="5" gradientUnits="userSpaceOnUse" x1="24.736" y1="37.423" x2="24.404" y2="16.587"/><linearGradient xlink:href="#0" id="8" x1="21.597" y1="14.977" x2="21.523" y2="34.511" gradientUnits="userSpaceOnUse"/><linearGradient id="1"><stop stop-color="#fff"/><stop offset="1"/></linearGradient><linearGradient id="2"><stop stop-color="#fff"/><stop offset="1" stop-color="#d3d7cf"/></linearGradient><linearGradient id="0"><stop stop-color="#474845"/><stop offset="1" stop-color="#838681"/></linearGradient><radialGradient xlink:href="#2" id="4" gradientUnits="userSpaceOnUse" gradientTransform="matrix(.00075-.78607 2.09627.0017-88.17 111.92)" cx="101.16" cy="53.26" r="12.552"/><radialGradient xlink:href="#2" id="3" gradientUnits="userSpaceOnUse" gradientTransform="matrix(.00074-.84101 2.06173.00182-85.84 115.73)" cx="107.7" cy="53.09" r="12.552"/></defs><g fill-rule="evenodd" color="#000"><g stroke-linejoin="round" stroke-linecap="square"><path d="m23.688 8.757l-12.816 17.743h25.633l-12.816-17.743z" opacity=".15" stroke-width="3" fill="none" stroke="url(#5)"/><path d="m23.688 8.757l-12.816 17.743h25.633l-12.816-17.743z" fill="url(#3)" stroke="url(#7)"/></g><g fill="none"><path d="m23.688 10.492l-10.876 15.1 21.753-.088-10.876-15.01z" stroke="#fff"/><path opacity=".15" stroke-width="3" stroke-linecap="square" stroke-linejoin="round" stroke="url(#6)" d="m10.614 30.504h25.882v4.975h-25.882z"/></g><path fill="url(#4)" stroke="url(#8)" d="m10.614 30.504h25.882v4.975h-25.882z"/><path fill="none" stroke="#fff" d="m11.616 31.553h23.878v2.93h-23.878z"/><path d="m23.688 11.313l-6 8.313c4.996.187 6.712-.168 11.375-.813l-5.375-7.5" opacity=".561" fill="#fff"/></g></svg>
